shared/img/tn-appnexus.svg

<?xml version="1.0" encoding="UTF-8"?>
<svg width="12px" height="13px" viewBox="0 0 12 13" version="1.1" xmlns="http://www.w3.org/2000/svg" xmlns:xlink="http://www.w3.org/1999/xlink">
    <!-- Generator: sketchtool 47.1 (45422) - http://www.bohemiancoding.com/sketch -->
    <title>8709DC29-C496-41F9-8301-42EC50E35983</title>
    <desc>Created with sketchtool.</desc>
    <defs></defs>
    <g id="V4--RC-Updates" stroke="none" stroke-width="1" fill="none" fill-rule="evenodd">
        <g id="ASSETS--Pill-Icons" transform="translate(-182.000000, -410.000000)" fill-rule="nonzero" fill="#FFFFFF">
            <g id="appnexus" transform="translate(182.000000, 410.000000)">
                <path d="M5.2,6.42 C3.78361449,5.12995338 1.93581734,4.41651818 0.02,4.42 L0.02,8.236 C2.484,8.528 3.82,9.9 4.1,12.332 L7.936,12.332 C7.92096328,10.0586017 6.92330118,7.90283477 5.2,6.42 Z" id="Shape"></path>
                <path d="M11.796,4.42 C11.536,4.36 11.264,4.34 10.996,4.276 C9.31912983,3.83163085 8.10532199,2.37730627 7.968,0.648 C7.94420141,0.530641924 7.85833884,0.435579789 7.744,0.4 C6.58133333,0.4 5.42533333,0.4 4.276,0.4 C4.17888235,0.430437812 4.10461987,0.509246976 4.08,0.608 C4.08177585,0.886809558 4.10585264,1.16503028 4.152,1.44 C4.56460383,4.22626555 6.41204241,6.59025769 9.016,7.664 C9.96122735,8.06314219 10.9741183,8.2776687 12,8.296 C12,7.032 12,5.808 12,4.584 C12,4.528 11.872,4.44 11.796,4.42 Z" id="Shape"></path>
                <path d="M8.288,8.7 C8.76923946,9.78400533 9.0263891,10.9541042 9.044,12.14 C9.044,12.336 9.14,12.364 9.304,12.364 C10.132,12.364 10.96,12.364 11.784,12.364 C11.8499538,12.3575615 11.9154232,12.3468726 11.98,12.332 L11.98,9.412 C10.6976549,9.3830621 9.43411136,9.0974387 8.264,8.572 C8.26730049,8.61541523 8.27534853,8.65833808 8.288,8.7 L8.288,8.7 Z" id="Shape"></path>
                <path d="M2.964,0.604 C2.964,0.412 2.844,0.404 2.704,0.404 L0.252,0.404 C0.056,0.4 0,0.476 0,0.668 C0,1.2 0,1.744 0,2.284 L0,3.288 C1.31516599,3.31548173 2.61037945,3.6151105 3.804,4.168 C3.28802491,3.04828432 3.00236803,1.836283 2.964,0.604 L2.964,0.604 Z" id="Shape"></path>
                <path d="M0.028,9.456 L0.028,12.348 L2.932,12.348 C3.084,10.868 1.272,9.092 0.028,9.456 Z" id="Shape"></path>
                <path d="M11.7,3.28 C11.884,3.28 12.004,3.28 12,3.044 C12,2.244 12,1.444 12,0.644 C12,0.436 11.908,0.392 11.728,0.392 L9.276,0.392 C9.136,0.392 9.044,0.428 9.064,0.6 C9.20028908,2.00338071 10.2990675,3.1204999 11.7,3.28 L11.7,3.28 Z" id="Shape"></path>
            </g>
        </g>
    </g>
</svg>

<svg width="12" height="13" xmlns="http://www.w3.org/2000/svg"><g fill-rule="nonzero" fill="#FFF"><path d="M5.2 6.42a7.672 7.672 0 0 0-5.18-2v3.816c2.464.292 3.8 1.664 4.08 4.096h3.836A7.868 7.868 0 0 0 5.2 6.42zM11.796 4.42c-.26-.06-.532-.08-.8-.144A4.088 4.088 0 0 1 7.968.648.328.328 0 0 0 7.744.4H4.276a.292.292 0 0 0-.196.208c.002.279.026.557.072.832a8 8 0 0 0 4.864 6.224A8.04 8.04 0 0 0 12 8.296V4.584c0-.056-.128-.144-.204-.164zM8.288 8.7a8.8 8.8 0 0 1 .756 3.44c0 .196.096.224.26.224h2.48a1.54 1.54 0 0 0 .196-.032v-2.92a9.6 9.6 0 0 1-3.716-.84.596.596 0 0 0 .024.128zM2.964.604c0-.192-.12-.2-.26-.2H.252C.056.4 0 .476 0 .668v2.62a9.524 9.524 0 0 1 3.804.88 9.2 9.2 0 0 1-.84-3.564z"/><path d="M.028 9.456v2.892h2.904c.152-1.48-1.66-3.256-2.904-2.892zM11.7 3.28c.184 0 .304 0 .3-.236v-2.4c0-.208-.092-.252-.272-.252H9.276c-.14 0-.232.036-.212.208A2.988 2.988 0 0 0 11.7 3.28z"/></g></svg>
